Fuji_500T_Alt_ARRI_LogC3_2.4_Rec709_D65_33.cube
# Adobe Cube File created by ARRI Image SDK
# Source color space AWG3/D65/LogC3
# Target color space Rec.709/D65/BT.1886
DOMAIN_MIN 0 0 0
DOMAIN_MAX 1 1 1
LUT_3D_SIZE 9
0 0 0
0.0203861 0.00585946 0.00683604
0.0483406 0.0192874 0.0134279
0.136721 0.0390631 0.00756847
0.301274 0.0556649 0
0.481575 0.0418708 0
0.664805 0.120119 0
0.999039 0.844495 0
0 0 0
0.00390631 0.0271 0.0125734
0.0271 0.0311284 0.0164797
0.086183 0.0397955 0.0175784
0.210086 0.0567636 0.000366217
0.383795 0.0662852 0
0.53138 0.0645762 0
0.688487 0.151125 0
0.999039 0.839734 0
0 0 0
0 0.069337 0.0280766
0 0.0722667 0.0300298
0.10547 0.0893568 0.0290532
0.276127 0.11902 0.00134279
0.457038 0.124025 0
0.589242 0.138308 0
0.725353 0.210697 0
0.997574 0.831556 0
0 0 0
0 0.190066 0.0458991
0 0.200931 0.0440681
0.00561532 0.229618 0.0262455
0.364019 0.308232 0
0.583627 0.331304 0
0.700084 0.337774 0
0.809339 0.378424 0
0.990738 0.803967 0
0 0 0
0 0.373541 0.0615244
0 0.396735 0.0437018
0.000732433 0.434577 0.0141604
0.266484 0.52076 0
0.695811 0.598154 0
0.861219 0.577646 0
0.921401 0.58912 0
0.979385 0.737194 0
0 0 0
0 0.543709 0.171633
0 0.564218 0.159426
0.00207523 0.594247 0.139162
0.174563 0.648447 0.0620127
0.579355 0.733898 0.0197757
0.886732 0.800427 0.00134279
0.988907 0.788708 0
0.999039 0.780285 0
0 0 0
0.069337 0.747082 0.491707
0.110353 0.753552 0.489021
0.177249 0.763195 0.486336
0.327398 0.789319 0.48658
0.555673 0.823743 0.464363
0.766369 0.864027 0.451789
0.961685 0.880873 0.290288
0.999039 0.870253 0.00390631
0.999039 0.85597 0
0.510018 0.866835 0.722057
0.516854 0.867811 0.722057
0.526131 0.868788 0.722057
0.555184 0.874159 0.72108
0.630503 0.887953 0.722057
0.747814 0.91017 0.720226
0.881361 0.935073 0.726329
0.989395 0.943618 0.661021
0.999039 0.915785 0.469001
0.750988 0.941421 0.911147
0.750988 0.941421 0.911147
0.752941 0.941421 0.911147
0.757458 0.942397 0.91017
0.771008 0.94435 0.909194
0.809705 0.951186 0.906264
0.882826 0.964126 0.907485
0.949599 0.975723 0.918837
0.990249 0.976577 0.886732
0 0.00585946 0.0126955
0.0271 0.00866712 0.0184329
0.0585946 0.0251469 0.0233158
0.153201 0.0416266 0.0205081
0.319341 0.0479744 0
0.487434 0.0373541 0
0.65333 0.0841077 0
0.994888 0.819104 0
0 0 0
0 0.0310063 0.0280766
0.025391 0.0358892 0.0347906
0.138186 0.0484627 0.0302739
0.251957 0.0535897 0.00378424
0.396368 0.0582284 0
0.533822 0.0549325 0
0.680186 0.127321 0
0.993912 0.812634 0
0 0 0
0 0.0847181 0.0434577
0 0.098024 0.0454108
0.120974 0.112184 0.038941
0.335698 0.120974 0.0021973
0.478157 0.103395 0
0.588022 0.116579 0
0.728161 0.208133 0
0.989883 0.802502 0
0 0 0
0 0.220096 0.0573739
0 0.23621 0.0610361
0.000976577 0.262943 0.0413825
0.381109 0.346441 0
0.609628 0.347051 0
0.708873 0.329717 0
0.816052 0.388922 0
0.979629 0.771374 0
0 0 0
0 0.387213 0.103395
0 0.404059 0.0877699
0 0.443366 0.0531014
0.232303 0.524666 0.000366217
0.688121 0.614755 0
0.865614 0.596201 0
0.920668 0.580209 0
0.980362 0.714488 0
0 0 0
0 0.54725 0.206912
0 0.564706 0.191775
0 0.593881 0.176638
0.15613 0.649424 0.098024
0.573495 0.734874 0.0351568
0.881971 0.798474 0.00720226
0.989273 0.79237 0
0.999039 0.780896 0
0 0 0
0.071046 0.749767 0.503792
0.110597 0.756237 0.501228
0.17554 0.765637 0.497688
0.326055 0.791028 0.497566
0.557137 0.826673 0.478279
0.765759 0.866346 0.46656
0.960464 0.882826 0.314336
0.999039 0.868421 0.00866712
0.999039 0.856214 0
0.509895 0.866835 0.724132
0.516609 0.867811 0.724132
0.525154 0.869642 0.72401
0.554208 0.874159 0.723033
0.629526 0.887953 0.724743
0.747814 0.91078 0.722911
0.881239 0.935195 0.728405
0.989395 0.94374 0.663828
0.999039 0.916762 0.476326
0.750011 0.941421 0.911147
0.750988 0.941421 0.911147
0.751965 0.941421 0.911147
0.757458 0.942397 0.911147
0.77052 0.94435 0.909194
0.809094 0.951186 0.906752
0.882826 0.964126 0.907485
0.949599 0.975723 0.918959
0.990249 0.976577 0.886732
0 0.0126955 0.0319829
0.0203861 0.0146487 0.0412604
0.0688487 0.0290532 0.0498054
0.176028 0.0435798 0.049073
0.337407 0.0146487 0.0246586
0.486213 0.0133059 0
0.662852 0.0942397 0
0.977188 0.763806 0
0 0 0
0 0.032105 0.0681163
0 0.0179446 0.109865
0.142214 0.043946 0.127077
0.272465 0.0438239 0.0671397
0.430426 0.00390631 0.030396
0.53785 0.0216068 0
0.695445 0.146242 0
0.974258 0.756115 0
0 0 0
0 0.0915541 0.101564
0 0.107668 0.126223
0.114992 0.114015 0.12256
0.361456 0.0908217 0.0758068
0.50782 0.0283207 0.018555
0.594858 0.0673838 0
0.741466 0.229496 0
0.971206 0.745495 0
0 0 0
0 0.239261 0.116335
0 0.26453 0.123293
0 0.311406 0.119631
0.368658 0.352422 0.0452888
0.637827 0.335943 0.00561532
0.756725 0.327398 0
0.819226 0.379278 0
0.967422 0.719371 0
0 0 0
0 0.397467 0.130861
0 0.41529 0.144289
0 0.452155 0.121096
0.196536 0.53431 0.0250248
0.679942 0.615244 0.00292973
0.872694 0.60914 0
0.924086 0.572763 0
0.973648 0.668833 0
0 0 0
0 0.567269 0.280278
0 0.583139 0.261967
0 0.605844 0.242802
0.158206 0.664927 0.193729
0.568002 0.74049 0.112795
0.874281 0.795544 0.0308843
0.991226 0.797131 0
0.999039 0.777966 0
0 0 0
0.0754406 0.754162 0.521736
0.113893 0.760143 0.518318
0.173831 0.769299 0.515389
0.322881 0.793713 0.514412
0.559579 0.830335 0.498299
0.76527 0.86891 0.485481
0.958755 0.885756 0.348638
0.999039 0.866468 0.0233158
0.999039 0.856703 0
0.508919 0.866835 0.727062
0.515755 0.868544 0.727062
0.525032 0.869764 0.727062
0.552743 0.874525 0.726085
0.627573 0.888441 0.727672
0.747204 0.910903 0.725963
0.881239 0.936049 0.732067
0.989273 0.944594 0.667857
0.999039 0.918593 0.485725
0.750011 0.941421 0.912123
0.750988 0.941421 0.912123
0.751965 0.941421 0.912123
0.756847 0.942397 0.911147
0.770031 0.94435 0.91017
0.809094 0.951186 0.90724
0.882826 0.964126 0.908217
0.949599 0.975723 0.918959
0.990249 0.977554 0.887709
0 0.000732433 0.0986343
0 0 0.142702
0.0617685 0.00146487 0.156619
0.218265 0.00500496 0.198734
0.373907 0 0.194949
0.52137 0 0.154665
0.657969 0.00415045 0.00183108
0.914199 0.538827 0
0 0 0
0 0 0.195682
0 0 0.235843
0.0847181 0 0.241947
0.307134 0 0.278691
0.436164 0 0.229984
0.577523 0 0.181888
0.68275 0.0123293 0.00170901
0.914687 0.535286 0
0 0 0
0 0.0773938 0.253544
0 0.0318608 0.28809
0.0379644 0.0488289 0.335576
0.373053 0.0566415 0.343511
0.53077 0.00378424 0.277226
0.653452 0.000610361 0.22388
0.721324 0.0568856 0.00268559
0.916396 0.531136 0
0 0 0
0 0.26746 0.316167
0 0.284794 0.343633
0 0.318364 0.367926
0.34168 0.352544 0.360723
0.628794 0.300664 0.307256
0.762951 0.219242 0.235966
0.820325 0.261845 0.00866712
0.923964 0.532113 0
0 0 0
0 0.435798 0.31043
0 0.454353 0.324102
0 0.491951 0.337896
0.174441 0.578256 0.336553
0.635386 0.609506 0.31397
0.860121 0.573251 0.214481
0.931899 0.564462 0.00817884
0.969863 0.625498 0
0 0 0
0 0.548348 0.357671
0 0.580575 0.379034
0 0.630747 0.399786
0.131838 0.70277 0.386236
0.563729 0.772839 0.368658
0.851698 0.800061 0.273808
0.987442 0.785412 0.055787
0.999039 0.768566 0
0 0 0
0.0759289 0.762585 0.568124
0.111208 0.7682 0.563485
0.162356 0.776135 0.558846
0.297856 0.797009 0.552621
0.560433 0.83888 0.545174
0.76112 0.874525 0.5337
0.954482 0.892958 0.435065
0.999039 0.867201 0.15491
0.999039 0.860975 0
0.506111 0.868788 0.739147
0.512337 0.869764 0.739147
0.52137 0.870741 0.738537
0.548959 0.875502 0.737194
0.62269 0.888563 0.737194
0.746227 0.912123 0.735241
0.87953 0.937026 0.741344
0.988296 0.946181 0.682628
0.999039 0.921523 0.511971
0.749035 0.941421 0.914076
0.750011 0.941421 0.91371
0.750988 0.941421 0.9131
0.755871 0.942397 0.9131
0.769055 0.944839 0.912123
0.808118 0.951186 0.909194
0.882582 0.964126 0.909804
0.948745 0.976577 0.920912
0.990249 0.977554 0.889662
0 0 0.278813
0 0 0.3075
0.0295415 0 0.312993
0.234257 0 0.336187
0.455573 0 0.398444
0.558724 0 0.372198
0.685557 0 0.341802
0.816175 0.165652 0.0616464
0 0 0
0 0 0.344976
0 0 0.361334
0.00158694 0 0.371954
0.268315 0 0.387945
0.491096 0 0.433478
0.57911 0 0.383062
0.711559 0 0.361456
0.827649 0.198245 0.0678721
0 0 0
0 0 0.399908
0 0 0.418219
0 0.000976577 0.443854
0.315435 0 0.466682
0.559335 0 0.50074
0.637583 0 0.422858
0.741466 0 0.388678
0.843275 0.244511 0.0782483
0 0 0
0 0.251591 0.510262
0 0.238529 0.528206
0 0.237308 0.5608
0.28809 0.293095 0.6056
0.618784 0.287968 0.59205
0.7411 0.139284 0.509285
0.829969 0.229496 0.491096
0.880751 0.347295 0.113649
0 0 0
0 0.457038 0.554696
0 0.472541 0.572641
0 0.504646 0.591073
0.0466316 0.572763 0.603525
0.605966 0.603525 0.602548
0.842542 0.552987 0.547738
0.905531 0.490974 0.492439
0.943008 0.53077 0.19971
0 0 0
0 0.605722 0.57203
0 0.623667 0.579355
0 0.649424 0.58497
0.00610361 0.702403 0.577523
0.534066 0.793713 0.588388
0.8224 0.817762 0.570565
0.97145 0.787366 0.476081
0.994156 0.752331 0.234379
0.999039 0.859754 0
0 0.73048 0.633799
0.000488289 0.740612 0.634287
0.0124514 0.755383 0.633555
0.185306 0.7953 0.632456
0.517098 0.84596 0.636728
0.751965 0.886488 0.631235
0.94313 0.908461 0.580819
0.999039 0.887221 0.418708
0.999039 0.864271 0
0.495857 0.872206 0.770153
0.505013 0.873671 0.770275
0.517342 0.875502 0.771008
0.543099 0.879408 0.768688
0.609751 0.890517 0.765148
0.741955 0.915175 0.762707
0.8766 0.940078 0.768811
0.985489 0.95082 0.721813
0.999039 0.930556 0.576547
0.741711 0.940444 0.91603
0.742687 0.940444 0.91603
0.745373 0.941421 0.917006
0.752087 0.942397 0.917983
0.767102 0.945327 0.917494
0.805188 0.951553 0.914565
0.880873 0.964858 0.914321
0.948135 0.976699 0.924941
0.989273 0.978531 0.895521
0 0 0.451301
0 0 0.465339
0 0 0.478889
0.253056 0 0.506477
0.444099 0 0.518441
0.628916 0 0.567391
0.694835 0 0.538338
0.803601 0.00317388 0.573251
0.929458 0.475593 0.355352
0 0 0.491585
0 0 0.485237
0 0 0.489876
0.246098 0 0.520638
0.449836 0 0.529427
0.634775 0 0.573861
0.718395 0 0.561776
0.811048 0.0181888 0.587778
0.931899 0.483528 0.356939
0 0 0.532723
0 0 0.534066
0 0 0.5337
0.233036 0 0.553109
0.480842 0 0.567514
0.679332 0 0.618418
0.74403 0 0.590585
0.82533 0.0942397 0.612802
0.934707 0.493538 0.360113
0 0.0933852 0.612802
0 0.0813001 0.621469
0 0.0946059 0.638315
0.200198 0.133547 0.664561
0.56141 0.0965591 0.691905
0.741833 0.0765393 0.710094
0.793103 0.0454108 0.657725
0.872572 0.301396 0.681163
0.94435 0.527108 0.369512
0 0.42298 0.729992
0 0.427863 0.739269
0 0.452766 0.760021
0.00598154 0.519417 0.797986
0.566293 0.555795 0.817639
0.805798 0.54493 0.809094
0.888075 0.452644 0.757824
0.926772 0.506233 0.73109
0.96791 0.614878 0.396246
0 0.63624 0.780774
0 0.654307 0.787732
0 0.676646 0.79469
0.00341802 0.726696 0.802136
0.394049 0.789685 0.811414
0.793957 0.814221 0.815198
0.953994 0.762097 0.7505
0.977432 0.723033 0.699596
0.999039 0.771618 0.418708
0.000366217 0.771252 0.780163
0.000976577 0.776135 0.779797
0.00402838 0.784436 0.779187
0.069337 0.804822 0.776623
0.328008 0.841199 0.769543
0.710216 0.899062 0.783948
0.923598 0.925673 0.759533
0.996231 0.915663 0.682872
0.999039 0.89308 0.511482
0.328252 0.854627 0.806531
0.344121 0.856458 0.807263
0.364263 0.859388 0.808484
0.41944 0.867445 0.811658
0.552499 0.889296 0.822156
0.711192 0.918959 0.827527
0.866346 0.947036 0.831434
0.979629 0.959487 0.798352
0.999039 0.949233 0.71754
0.714122 0.936172 0.921889
0.715709 0.936538 0.921889
0.718395 0.937148 0.922255
0.725109 0.938491 0.923232
0.746471 0.942519 0.926162
0.798596 0.952529 0.930068
0.8766 0.966079 0.927382
0.946304 0.977676 0.935073
0.988907 0.980484 0.91249
0.00122072 0.00610361 0.577157
0.000732433 0.00817884 0.571298
0.0292973 0 0.567636
0.251835 0 0.583383
0.438239 0 0.601572
0.601205 0 0.624277
0.758801 0 0.687022
0.815808 0.00244144 0.725963
0.913832 0.437263 0.838148
0.0052491 0.00830091 0.601816
0.0109865 0.0157473 0.597299
0.0294194 0.0313725 0.590951
0.24683 0.0220951 0.601205
0.450813 0.000732433 0.620005
0.620371 0 0.642466
0.769177 0.00256352 0.701305
0.818128 0.0096437 0.732921
0.915053 0.444587 0.840101
0.00122072 0.0297856 0.622812
0.00830091 0.0428473 0.622324
0.0446784 0.0527352 0.625742
0.247196 0.0476081 0.63856
0.476326 0.0166018 0.660899
0.64564 0 0.668833
0.782238 0.0173342 0.720958
0.825208 0.0361334 0.745861
0.917739 0.455818 0.843519
0 0.142458 0.695201
0 0.154299 0.70045
0.00451667 0.172122 0.706432
0.222904 0.175296 0.710704
0.506111 0.127199 0.734508
0.695811 0.0559091 0.736461
0.819471 0.126711 0.781628
0.849256 0.167483 0.782361
0.925185 0.485481 0.851087
0 0.407477 0.8047
0 0.416144 0.810315
0 0.428962 0.817151
0.0466316 0.462531 0.827771
0.51075 0.478767 0.85597
0.783581 0.468635 0.866468
0.890883 0.489265 0.878431
0.903456 0.420661 0.850477
0.942153 0.562509 0.867201
0 0.640513 0.881971
0 0.652598 0.886488
0 0.667979 0.891859
0.0130617 0.709483 0.901381
0.426154 0.76466 0.916762
0.773205 0.776623 0.929824
0.919081 0.762951 0.925917
0.963882 0.704234 0.911635
0.977066 0.744274 0.895644
0.0366217 0.799817 0.906264
0.05066 0.804211 0.906874
0.0722667 0.810071 0.90724
0.135866 0.825452 0.909926
0.305425 0.857923 0.916274
0.634165 0.900649 0.930434
0.904311 0.933608 0.937514
0.992081 0.921401 0.907973
0.999039 0.914565 0.875502
0.371099 0.875868 0.905531
0.378546 0.876722 0.905776
0.3888 0.878553 0.906264
0.413458 0.881971 0.907118
0.481819 0.892592 0.90956
0.621469 0.915053 0.913588
0.832776 0.95375 0.926284
0.967788 0.972061 0.912612
0.99794 0.971206 0.884169
0.681895 0.932631 0.9402
0.682872 0.932876 0.940932
0.683848 0.932876 0.940932
0.688365 0.933852 0.940932
0.702892 0.936782 0.940932
0.747082 0.945449 0.943618
0.863294 0.967056 0.954604
0.941909 0.980484 0.958511
0.986343 0.98439 0.944839
0.326421 0.177127 0.731456
0.336919 0.173098 0.731456
0.352911 0.164431 0.730358
0.41004 0.162722 0.738415
0.531258 0.148562 0.751476
0.674449 0.106813 0.75465
0.777234 0.0675059 0.759289
0.876844 0.297246 0.840955
0.917372 0.459358 0.884169
0.326421 0.198611 0.740978
0.337896 0.193606 0.740246
0.354864 0.184085 0.739391
0.41004 0.178714 0.745983
0.535042 0.16614 0.760021
0.67921 0.117678 0.762707
0.783825 0.0759289 0.768811
0.880629 0.315312 0.846571
0.919081 0.465949 0.886
0.325689 0.234745 0.755505
0.338018 0.229007 0.754528
0.355962 0.219364 0.753552
0.408453 0.206546 0.756115
0.538094 0.195926 0.77052
0.686046 0.142336 0.773816
0.793591 0.120485 0.781262
0.886366 0.339971 0.854017
0.920912 0.474617 0.888197
0.320439 0.32398 0.79237
0.335332 0.320073 0.792004
0.355596 0.313481 0.791516
0.405524 0.29163 0.788586
0.550057 0.292607 0.805676
0.713268 0.25684 0.813245
0.820691 0.229496 0.817762
0.900526 0.406867 0.871839
0.927016 0.501839 0.895521
0.262455 0.478035 0.846204
0.286625 0.479011 0.847669
0.323003 0.478889 0.850965
0.408942 0.47779 0.857313
0.555428 0.471931 0.866835
0.759533 0.488289 0.886244
0.871717 0.454841 0.883192
0.931777 0.545052 0.909926
0.942031 0.570077 0.913344
0.165286 0.690806 0.907729
0.201541 0.692882 0.908461
0.247318 0.694835 0.91017
0.36231 0.702037 0.915663
0.549081 0.718151 0.928847
0.769055 0.734874 0.944472
0.917372 0.735729 0.948135
0.96437 0.746593 0.952041
0.969497 0.71754 0.945205
0.114504 0.834363 0.94081
0.13843 0.837049 0.941543
0.176028 0.839979 0.942519
0.279911 0.84889 0.944717
0.478523 0.871717 0.95375
0.70692 0.904677 0.968154
0.899672 0.919081 0.976822
0.974868 0.914687 0.975967
0.993301 0.896986 0.972061
0.421759 0.888197 0.951431
0.426642 0.889174 0.951431
0.433112 0.89015 0.952285
0.453864 0.893568 0.953384
0.512459 0.902724 0.956313
0.638682 0.923476 0.964004
0.801282 0.952529 0.97377
0.961318 0.975723 0.978653
0.996109 0.978653 0.973892
0.716075 0.942397 0.96791
0.717052 0.942397 0.96791
0.718029 0.942519 0.96791
0.722057 0.943496 0.96791
0.734997 0.945815 0.968887
0.769299 0.952285 0.97084
0.841199 0.965103 0.974014
0.933242 0.980606 0.979629
0.982437 0.98732 0.978653
0.707042 0.542 0.899428
0.708995 0.542 0.899428
0.713634 0.542 0.899428
0.725231 0.542 0.900404
0.759289 0.541024 0.902358
0.826062 0.537118 0.905287
0.89308 0.518563 0.903334
0.928969 0.541512 0.910292
0.960952 0.668956 0.940444
0.706065 0.545907 0.900404
0.709972 0.54786 0.901259
0.713878 0.548714 0.901381
0.725841 0.548714 0.902358
0.760266 0.54786 0.903822
0.827039 0.542489 0.906264
0.894301 0.525154 0.905287
0.929946 0.545296 0.911269
0.961929 0.671885 0.941421
0.705089 0.549813 0.901381
0.708995 0.551766 0.901381
0.713878 0.554452 0.90309
0.726207 0.555428 0.904067
0.760754 0.555428 0.90602
0.828626 0.551156 0.908949
0.89601 0.5337 0.90724
0.930922 0.5514 0.912978
0.962905 0.676768 0.942397
0.701183 0.563729 0.904311
0.705089 0.565438 0.905287
0.710094 0.568002 0.90602
0.726818 0.577401 0.909804
0.763195 0.580697 0.912123
0.832166 0.578012 0.915663
0.901137 0.559945 0.914076
0.935805 0.574105 0.918715
0.964858 0.691051 0.945327
0.703624 0.622568 0.918959
0.705577 0.622568 0.918959
0.709239 0.622568 0.918959
0.71986 0.620981 0.919448
0.762707 0.638682 0.926284
0.839734 0.647105 0.931655
0.912367 0.631846 0.931167
0.947036 0.638682 0.934218
0.971695 0.730968 0.953628
0.711559 0.763439 0.948013
0.713512 0.763439 0.948623
0.718151 0.76405 0.948623
0.729747 0.76405 0.949599
0.766125 0.765393 0.951919
0.845228 0.777722 0.957778
0.926772 0.780774 0.961318
0.965469 0.769177 0.960464
0.982803 0.818006 0.970108
0.677745 0.896498 0.968032
0.681651 0.89723 0.968765
0.68629 0.898207 0.968765
0.699596 0.899794 0.969741
0.736584 0.904311 0.971939
0.81886 0.913466 0.976822
0.918715 0.92018 0.982681
0.975845 0.921157 0.984634
0.992203 0.922866 0.985367
0.622568 0.919936 0.970718
0.625376 0.920912 0.970718
0.628428 0.921767 0.971328
0.637949 0.922866 0.971695
0.667491 0.928725 0.973648
0.740856 0.941787 0.978531
0.865492 0.962173 0.986343
0.965103 0.975723 0.991226
0.989273 0.977676 0.989395
0.766613 0.951186 0.979507
0.76759 0.952163 0.979507
0.768566 0.952163 0.979507
0.771496 0.952163 0.979507
0.779797 0.954116 0.979507
0.805432 0.958999 0.98146
0.860365 0.968765 0.98439
0.938979 0.981582 0.988296
0.983413 0.98732 0.989273
