Fuji_500T_Alt_ARRI_LogC3_2.4_Rec709_D65_33.cube
# Adobe Cube File created by ARRI Image SDK
# Source color space AWG3/D65/LogC3
# Target color space Rec.709/D65/BT.1886
DOMAIN_MIN 0 0 0
DOMAIN_MAX 1 1 1
LUT_3D_SIZE 5
0 0 0
0.0483406 0.0192874 0.0134279
0.301274 0.0556649 0
0.664805 0.120119 0
0 0 0
0 0.069337 0.0280766
0.10547 0.0893568 0.0290532
0.457038 0.124025 0
0.725353 0.210697 0
0 0 0
0 0.373541 0.0615244
0.000732433 0.434577 0.0141604
0.695811 0.598154 0
0.921401 0.58912 0
0 0 0
0.069337 0.747082 0.491707
0.177249 0.763195 0.486336
0.555673 0.823743 0.464363
0.961685 0.880873 0.290288
0.999039 0.85597 0
0.750988 0.941421 0.911147
0.752941 0.941421 0.911147
0.771008 0.94435 0.909194
0.882826 0.964126 0.907485
0.990249 0.976577 0.886732
0 0.0126955 0.0319829
0.0688487 0.0290532 0.0498054
0.337407 0.0146487 0.0246586
0.662852 0.0942397 0
0 0 0
0 0.0915541 0.101564
0.114992 0.114015 0.12256
0.50782 0.0283207 0.018555
0.741466 0.229496 0
0 0 0
0 0.397467 0.130861
0 0.452155 0.121096
0.679942 0.615244 0.00292973
0.924086 0.572763 0
0 0 0
0.0754406 0.754162 0.521736
0.173831 0.769299 0.515389
0.559579 0.830335 0.498299
0.958755 0.885756 0.348638
0.999039 0.856703 0
0.750011 0.941421 0.912123
0.751965 0.941421 0.912123
0.770031 0.94435 0.91017
0.882826 0.964126 0.908217
0.990249 0.977554 0.887709
0 0 0.278813
0.0295415 0 0.312993
0.455573 0 0.398444
0.685557 0 0.341802
0 0 0
0 0 0.399908
0 0.000976577 0.443854
0.559335 0 0.50074
0.741466 0 0.388678
0 0 0
0 0.457038 0.554696
0 0.504646 0.591073
0.605966 0.603525 0.602548
0.905531 0.490974 0.492439
0 0 0
0 0.73048 0.633799
0.0124514 0.755383 0.633555
0.517098 0.84596 0.636728
0.94313 0.908461 0.580819
0.999039 0.864271 0
0.741711 0.940444 0.91603
0.745373 0.941421 0.917006
0.767102 0.945327 0.917494
0.880873 0.964858 0.914321
0.989273 0.978531 0.895521
0.00122072 0.00610361 0.577157
0.0292973 0 0.567636
0.438239 0 0.601572
0.758801 0 0.687022
0.913832 0.437263 0.838148
0.00122072 0.0297856 0.622812
0.0446784 0.0527352 0.625742
0.476326 0.0166018 0.660899
0.782238 0.0173342 0.720958
0.917739 0.455818 0.843519
0 0.407477 0.8047
0 0.428962 0.817151
0.51075 0.478767 0.85597
0.890883 0.489265 0.878431
0.942153 0.562509 0.867201
0.0366217 0.799817 0.906264
0.0722667 0.810071 0.90724
0.305425 0.857923 0.916274
0.904311 0.933608 0.937514
0.999039 0.914565 0.875502
0.681895 0.932631 0.9402
0.683848 0.932876 0.940932
0.702892 0.936782 0.940932
0.863294 0.967056 0.954604
0.986343 0.98439 0.944839
0.707042 0.542 0.899428
0.713634 0.542 0.899428
0.759289 0.541024 0.902358
0.89308 0.518563 0.903334
0.960952 0.668956 0.940444
0.705089 0.549813 0.901381
0.713878 0.554452 0.90309
0.760754 0.555428 0.90602
0.89601 0.5337 0.90724
0.962905 0.676768 0.942397
0.703624 0.622568 0.918959
0.709239 0.622568 0.918959
0.762707 0.638682 0.926284
0.912367 0.631846 0.931167
0.971695 0.730968 0.953628
0.677745 0.896498 0.968032
0.68629 0.898207 0.968765
0.736584 0.904311 0.971939
0.918715 0.92018 0.982681
0.992203 0.922866 0.985367
0.766613 0.951186 0.979507
0.768566 0.952163 0.979507
0.779797 0.954116 0.979507
0.860365 0.968765 0.98439
0.983413 0.98732 0.989273
