Fuji_500T_Alt_ARRI_LogC3_2.4_Rec709_D65_33.cube
# Adobe Cube File created by ARRI Image SDK
# Source color space AWG3/D65/LogC3
# Target color space Rec.709/D65/BT.1886
DOMAIN_MIN 0 0 0
DOMAIN_MAX 1 1 1
LUT_3D_SIZE 33
0 0 0
0.00436408 0.000976577 0.000976577
0.0096437 0.0028687 0.00292973
0.0150454 0.00430304 0.00488289
0.0203861 0.00585946 0.00683604
0.0267033 0.00814832 0.0091249
0.0339971 0.0115358 0.0117189
0.0403143 0.0149233 0.0126955
0.0483406 0.0192874 0.0134279
0.0664988 0.0256046 0.0136721
0.0886244 0.0309453 0.0130007
0.109163 0.0353094 0.0115663
0.136721 0.0390631 0.00756847
0.176608 0.0441291 0.00195315
0.212284 0.0498054 0.000976577
0.254215 0.0537423 0
0.301274 0.0556649 0
0.349279 0.0547189 0
0.393927 0.0532845 0
0.436683 0.049012 0
0.481575 0.0418708 0
0.525002 0.0287785 0
0.564279 0.0263066 0
0.606271 0.0471199 0
0.664805 0.120119 0
0.763226 0.303227 0
0.855787 0.500008 0
0.936385 0.681254 0
0.999039 0.844495 0
0 0 0
0 0 0
0 0 0
0 0 0
0.000976577 0.00579843 0.00292973
0.00579843 0.00677501 0.00436408
0.0115969 0.00872816 0.00579843
0.0173953 0.0106203 0.00729381
0.0236515 0.0120546 0.00924697
0.0304265 0.0141299 0.011078
0.0373846 0.0158999 0.0112001
0.0454108 0.020264 0.0121767
0.0585336 0.0246281 0.0126955
0.0803235 0.0294499 0.0121767
0.0990005 0.0343328 0.0107424
0.12076 0.0380255 0.009308
0.152834 0.0420844 0.00418097
0.191135 0.0475166 0.000885023
0.232395 0.0537423 0
0.277043 0.0576181 0
0.324071 0.0576181 0
0.369665 0.0566415 0
0.41236 0.0547189 0
0.456001 0.0514229 0
0.497841 0.0442817 0
0.535836 0.0363775 0
0.573007 0.0369879 0
0.614023 0.057496 0
0.669871 0.126894 0
0.765911 0.304753 0
0.85658 0.498848 0
0.936385 0.679637 0
0.999039 0.843519 0
0 0 0
0 0 0
0 0 0
0 0 0
0.00292973 0.0125734 0.00585946
0.00723278 0.01355 0.00723278
0.0125734 0.0155032 0.00872816
0.0188907 0.0169375 0.0101625
0.0252079 0.0184329 0.0125734
0.033875 0.0203861 0.0136721
0.0416266 0.0213626 0.0136721
0.0495918 0.0255436 0.013611
0.0679942 0.0299687 0.0145876
0.0905776 0.0343328 0.0136721
0.109682 0.0396124 0.0119631
0.135744 0.043061 0.00863661
0.172244 0.0464485 0.00231937
0.21146 0.0527657 0
0.254765 0.0581064 0
0.298924 0.0596017 0
0.345403 0.0595712 0
0.389105 0.0595102 0
0.431769 0.0576181 0
0.472572 0.0538033 0
0.509957 0.0493782 0
0.546456 0.0458686 0
0.582345 0.0482795 0
0.621775 0.0684825 0
0.675486 0.13489 0
0.767681 0.306279 0
0.857557 0.497871 0
0.935744 0.677745 0
0.999039 0.842542 0
0 0 0
0 0 0
0 0 0
0 0 0
0.00390631 0.0199283 0.00976577
0.00827039 0.0213016 0.0102235
0.01355 0.0222782 0.0116579
0.0193484 0.0232547 0.0130922
0.0271 0.0256657 0.0145266
0.0348516 0.0271611 0.0156252
0.0439765 0.0285344 0.016022
0.0561837 0.0309453 0.016022
0.0771191 0.0343328 0.0156252
0.0985428 0.0396735 0.0148318
0.12076 0.0440375 0.0130007
0.152377 0.047425 0.00750744
0.191287 0.0514229 0.00134279
0.232395 0.0581064 0
0.276585 0.0619211 0
0.321263 0.0628977 0
0.36585 0.062501 0
0.407965 0.0619211 0
0.448402 0.0605173 0
0.48484 0.0589914 0
0.520729 0.0560922 0
0.556222 0.0563058 0
0.592111 0.0603952 0
0.62855 0.0805371 0
0.681956 0.142885 0
0.770306 0.308507 0
0.857557 0.496712 0
0.935744 0.676066 0
0.999039 0.841291 0
0 0 0
0 0 0
0 0 0
0 0 0
0.00390631 0.0271 0.0125734
0.00839246 0.0280766 0.01355
0.013611 0.0281987 0.0145266
0.0189517 0.029572 0.0155032
0.0271 0.0311284 0.0164797
0.0358282 0.0325628 0.0169375
0.0463874 0.0349126 0.0175784
0.0623789 0.0372625 0.0184329
0.086183 0.0397955 0.0175784
0.106294 0.0442512 0.0166018
0.13257 0.0493782 0.0138552
0.169833 0.0517891 0.00582895
0.210086 0.0567636 0.000366217
0.252384 0.062562 0
0.29688 0.0658579 0
0.340642 0.0662852 0
0.383795 0.0662852 0
0.42417 0.0653086 0
0.461067 0.0653086 0
0.496956 0.0651865 0
0.53138 0.0645762 0
0.566751 0.0669871 0
0.600534 0.0733654 0
0.63566 0.0926528 0
0.688487 0.151125 0
0.772839 0.310887 0
0.858228 0.495735 0
0.93608 0.675212 0
0.999039 0.839734 0
0 0 0
0 0 0
0 0 0
0 0 0
0.00390631 0.0325628 0.0149844
0.00729381 0.0328985 0.0159609
0.0113222 0.0335393 0.0159609
0.0169986 0.0345159 0.0169375
0.0237125 0.0354925 0.0179141
0.0351873 0.0377813 0.0188907
0.0482795 0.0411688 0.0205081
0.0703441 0.0442512 0.0199283
0.0941787 0.0476387 0.0198672
0.113924 0.0526436 0.018555
0.14313 0.0570077 0.0152895
0.185153 0.0594186 0.00653086
0.226566 0.0634165 0.000366217
0.270817 0.0687877 0
0.314672 0.070985 0
0.357763 0.0716258 0
0.398962 0.0716258 0
0.437263 0.070985 0
0.473182 0.070985 0
0.50721 0.0719615 0
0.541695 0.0733043 0
0.576608 0.0788281 0
0.608286 0.0868849 0
0.642527 0.104219 0
0.694041 0.159609 0
0.775402 0.312963 0
0.858503 0.495552 0
0.935439 0.673472 0
0.999039 0.838544 0
0 0 0
0 0 0
0 0 0
0 0 0
0.00213626 0.0396735 0.0193484
0.00552377 0.0396735 0.0193484
0.00891127 0.04065 0.0193484
0.0132753 0.04065 0.0197452
0.0195926 0.0416266 0.020325
0.0304875 0.0435798 0.0213016
0.0463264 0.0482795 0.0232547
0.0712596 0.0526436 0.0232547
0.103029 0.0587167 0.0224613
0.124727 0.0631418 0.0214847
0.15491 0.0675059 0.0178836
0.197269 0.0699168 0.0091249
0.240909 0.0740978 0.000976577
0.28809 0.0785534 0
0.331731 0.0785534 0
0.374365 0.07776 0
0.414801 0.0779431 0
0.451972 0.0785534 0
0.486641 0.0787366 0
0.520211 0.0805066 0
0.554147 0.0843519 0
0.586282 0.0936904 0
0.618784 0.104189 0
0.652049 0.119844 0
0.701793 0.17084 0
0.778088 0.315557 0
0.859144 0.494392 0
0.935439 0.671702 0
0.998367 0.836927 0
0 0 0
0 0 0
0 0 0
0 0 0
0 0.0518807 0.0227359
0 0.0528573 0.0237125
0.000701915 0.0535592 0.0237125
0.00347906 0.0538338 0.0237125
0.00869764 0.0538338 0.0237125
0.0197147 0.0577401 0.0256657
0.0365301 0.0602121 0.0256657
0.0683299 0.0658274 0.0256657
0.104005 0.0728771 0.0249332
0.134524 0.0813306 0.0234379
0.170535 0.0856336 0.0198367
0.211734 0.088716 0.0102846
0.256229 0.09308 0.000976577
0.303868 0.096376 0
0.349645 0.0953994 0
0.393988 0.0936904 0
0.434485 0.0924697 0
0.471809 0.0931411 0
0.505348 0.0938735 0
0.536599 0.0982376 0
0.568765 0.106813 0
0.602426 0.119783 0
0.634104 0.130465 0
0.666392 0.141909 0
0.711315 0.186191 0
0.78175 0.319768 0
0.860395 0.493141 0
0.935164 0.669261 0
0.998184 0.834821 0
0 0 0
0 0 0
0 0 0
0 0 0
0 0.069337 0.0280766
0 0.0695811 0.0280766
0 0.0695811 0.0280766
0 0.071046 0.0295415
0 0.0722667 0.0300298
0.00579843 0.0738231 0.0300298
0.0178836 0.0762341 0.0300298
0.0538643 0.0808728 0.0300298
0.10547 0.0893568 0.0290532
0.137453 0.0975662 0.0268864
0.183597 0.106813 0.0217899
0.23331 0.112947 0.009308
0.276127 0.11902 0.00134279
0.323674 0.124269 0
0.369085 0.125246 0
0.41413 0.125246 0
0.457038 0.124025 0
0.494392 0.124025 0
0.527596 0.126711 0
0.558694 0.131014 0
0.589242 0.138308 0
0.621592 0.149935 0
0.653819 0.161318 0
0.684794 0.171237 0
0.725353 0.210697 0
0.787121 0.325689 0
0.861891 0.491279 0
0.934798 0.665599 0
0.997574 0.831556 0
0 0 0
0 0 0
0 0 0
0 0 0
0 0.0872206 0.0336309
0 0.0893568 0.0343328
0 0.0911269 0.0353704
0 0.0911269 0.0353704
0 0.0921035 0.035584
0.00207523 0.0940566 0.035584
0.00643931 0.0968032 0.035584
0.0340276 0.101167 0.0353094
0.0992142 0.109194 0.0334173
0.142977 0.121279 0.0290837
0.189822 0.130007 0.0218814
0.248508 0.142794 0.00796521
0.305882 0.15552 0.000762951
0.352239 0.159457 0
0.39588 0.161318 0
0.44007 0.161532 0
0.481758 0.161318 0
0.518624 0.161318 0
0.550942 0.161532 0
0.580514 0.165896 0
0.611063 0.173159 0
0.642435 0.187076 0
0.67628 0.203677 0
0.707042 0.214694 0
0.741344 0.243168 0
0.793957 0.334264 0
0.863874 0.489906 0
0.934798 0.662638 0
0.996475 0.827314 0
0 0 0
0 0 0
0 0 0
0 0 0
0 0.117678 0.0387579
0 0.120607 0.0404974
0 0.121584 0.0407111
0 0.12256 0.0407111
0 0.123415 0.0407111
0 0.12549 0.0407111
0.00030518 0.129091 0.0400397
0.0166629 0.134524 0.0387884
0.0766003 0.142947 0.0346685
0.13666 0.155795 0.0275273
0.201846 0.172793 0.0128786
0.259037 0.183108 0.00308232
0.322332 0.200259 0
0.38764 0.215946 0
0.430915 0.216312 0
0.473121 0.216434 0
0.511055 0.215457 0
0.546456 0.215152 0
0.57734 0.214176 0
0.605936 0.217319 0
0.635874 0.22565 0
0.667857 0.239719 0
0.701793 0.25861 0
0.732341 0.270329 0
0.760204 0.282414 0
0.802747 0.34699 0
0.866407 0.4878 0
0.934798 0.657511 0
0.995621 0.822095 0
0 0 0
0 0 0
0 0 0
0 0 0
0 0.15259 0.0429694
0 0.154025 0.0421454
0 0.157626 0.0440986
0 0.158602 0.0440986
0 0.160433 0.043946
0 0.163638 0.043122
0 0.168185 0.0423285
0.00134279 0.174655 0.039765
0.0341497 0.183658 0.0335393
0.122164 0.197696 0.0215152
0.199069 0.214847 0.00759899
0.277165 0.23682 0
0.338506 0.250217 0
0.405219 0.263676 0
0.465766 0.275242 0
0.508614 0.275547 0
0.546151 0.274449 0
0.579141 0.275425 0
0.608286 0.276402 0
0.636423 0.278264 0
0.665751 0.284337 0
0.6963 0.295323 0
0.728801 0.309545 0
0.759197 0.322698 0
0.78349 0.327459 0
0.815106 0.366217 0
0.870283 0.487282 0
0.93608 0.652476 0
0.993881 0.814893 0
0 0 0
0 0 0
0 0 0
0 0 0
0 0.190066 0.0458991
0 0.193088 0.0458991
0 0.196475 0.0449226
0 0.198123 0.0449226
0 0.200931 0.0440681
0 0.204318 0.0429694
0 0.209293 0.0411994
0 0.216983 0.0366827
0.00561532 0.229618 0.0262455
0.0773938 0.244511 0.0127565
0.195193 0.263615 0.000671397
0.280186 0.284825 0
0.364019 0.308232 0
0.425238 0.312718 0
0.483894 0.320317 0
0.541909 0.330022 0
0.583627 0.331304 0
0.61564 0.330571 0
0.644785 0.331182 0
0.671946 0.332525 0
0.700084 0.337774 0
0.730388 0.346258 0
0.758373 0.358221 0
0.786358 0.37229 0
0.809339 0.378424 0
0.831586 0.393835 0
0.875868 0.489082 0
0.936721 0.645212 0
0.990738 0.803967 0
0.405859 0.360601 0
0 0 0
0 0 0
0 0 0
0 0.237339 0.0468757
0 0.240116 0.0468757
0 0.244175 0.0458991
0 0.247501 0.0449226
0 0.251865 0.0430915
0 0.256565 0.040589
0 0.262455 0.0371099
0 0.271275 0.0290837
0.000732433 0.283574 0.0133364
0.0302739 0.298924 0.00357061
0.167697 0.315404 0
0.282841 0.335851 0
0.36759 0.360143 0
0.466773 0.38526 0
0.512398 0.376104 0
0.567514 0.380255 0
0.618326 0.387915 0
0.656962 0.392004 0
0.684062 0.388647 0
0.711223 0.388891 0
0.738384 0.392187 0
0.764477 0.397375 0
0.790661 0.408942 0
0.815015 0.421271 0
0.8365 0.433082 0
0.852613 0.43476 0
0.884047 0.495277 0
0.938369 0.635874 0
0.985641 0.790021 0
0.405859 0.358648 0
0 0 0
0 0 0
0 0 0
0 0.281437 0.0468757
0 0.286229 0.0458991
0 0.291142 0.0455329
0 0.295506 0.043946
0 0.29987 0.0401617
0 0.305547 0.0349126
0 0.312322 0.0266117
0 0.322026 0.0173342
0 0.335943 0.00915541
0.0128786 0.354345 0.00271611
0.0853895 0.373968 0.000976577
0.237125 0.390723 0
0.351995 0.412543 0
0.455421 0.430365 0
0.55201 0.453559 0
0.609445 0.450904 0
0.654917 0.449165 0
0.69514 0.453529 0
0.727672 0.454963 0
0.751781 0.451606 0
0.777111 0.451423 0
0.801343 0.454261 0
0.824292 0.46186 0
0.845563 0.473732 0
0.864637 0.485847 0
0.878035 0.487465 0
0.896681 0.511727 0
0.940566 0.6262 0
0.980423 0.773571 0
0.999039 0.884352 0
0 0 0
0 0 0
0 0 0
0 0.328466 0.049836
0 0.332799 0.047425
0 0.337194 0.0468757
0 0.342535 0.043183
0 0.348882 0.0362554
0 0.354528 0.0296025
0 0.362097 0.0228275
0 0.372015 0.0151064
0.000732433 0.386084 0.00903334
0.010071 0.40473 0.00390631
0.0624094 0.42652 0.000976577
0.182437 0.449378 0
0.307378 0.469642 0
0.426062 0.494026 0
0.526131 0.512398 0
0.636179 0.520119 0
0.694072 0.518441 0
0.73344 0.51899 0
0.766369 0.518013 0
0.797498 0.518013 0
0.820142 0.516701 0
0.838361 0.514107 0
0.858198 0.518288 0
0.877058 0.527077 0
0.893507 0.538949 0
0.9066 0.546304 0
0.914931 0.543496 0
0.94493 0.618479 0
0.976699 0.754009 0
0.999039 0.875441 0
0 0 0
0 0 0
0 0 0
0 0.373541 0.0615244
0 0.377905 0.0561532
0 0.382269 0.0532235
0 0.388983 0.0508736
0 0.396735 0.0437018
0 0.40351 0.0357977
0 0.410468 0.0272221
0 0.420264 0.0216983
0.000732433 0.434577 0.0141604
0.0105592 0.451057 0.0071107
0.0562753 0.471626 0.00225834
0.147524 0.495552 0.000335698
0.266484 0.52076 0
0.389288 0.543923 0
0.506722 0.568124 0
0.597757 0.587564 0
0.695811 0.598154 0
0.760418 0.585519 0
0.802808 0.577584 0
0.834821 0.576761 0
0.861219 0.577646 0
0.879927 0.576333 0
0.891249 0.574228 0
0.905409 0.57792 0
0.921401 0.58912 0
0.932296 0.596628 0
0.939651 0.594186 0
0.952102 0.617655 0
0.979385 0.737194 0
0.999039 0.861402 0
0 0 0
0 0 0
0 0 0
0 0.41767 0.0799573
0 0.422034 0.0740978
0 0.427344 0.069276
0 0.434089 0.0653391
0 0.440986 0.062501
0 0.449592 0.0548714
0 0.457343 0.0469368
0 0.467292 0.0383612
0 0.480415 0.0270085
0.00790417 0.495674 0.0168765
0.0452277 0.514107 0.00738537
0.120333 0.534829 0.00177005
0.225406 0.560067 0
0.359411 0.587198 0
0.474159 0.61088 0
0.574105 0.630716 0
0.661265 0.649149 0
0.751598 0.663676 0
0.814191 0.656413 0
0.860609 0.63917 0
0.888777 0.639811 0
0.912184 0.630838 0
0.927169 0.629526 0
0.935103 0.62855 0
0.943954 0.631052 0
0.956069 0.641489 0
0.963149 0.647166 0
0.966323 0.640635 0
0.985855 0.721355 0
0.998276 0.838148 0
0 0 0
0 0 0
0 0 0
0 0.459907 0.101198
0 0.465675 0.0954299
0 0.471015 0.0910658
0 0.477729 0.0861219
0 0.484504 0.0837415
0 0.491829 0.0775158
0 0.500374 0.0675669
0 0.510689 0.054902
0.000427253 0.522652 0.0421759
0.00866712 0.536934 0.0284123
0.0404059 0.553964 0.0175174
0.109316 0.573373 0.00753796
0.200443 0.595346 0.00415045
0.317205 0.61976 0.00238041
0.451179 0.646372 0.00140383
0.54435 0.666209 0.000976577
0.635691 0.684642 0.000427253
0.717113 0.703075 0
0.802014 0.718029 0
0.863203 0.71809 0
0.905776 0.704845 0
0.930648 0.699504 0
0.949233 0.690929 0
0.964065 0.680156 0
0.969802 0.678538 0
0.974807 0.681468 0
0.982925 0.693126 0
0.986648 0.694835 0
0.989944 0.707836 0
0.997269 0.809369 0
0.936599 0.838819 0
0 0 0
0 0 0
0 0.502022 0.129244
0 0.507362 0.123903
0 0.512795 0.119448
0 0.518135 0.115084
0 0.525307 0.111696
0 0.532082 0.107973
0 0.539834 0.101015
0 0.548653 0.0922866
0.000976577 0.56022 0.0781872
0.0104372 0.572183 0.0597543
0.0404974 0.587015 0.0458686
0.102052 0.604471 0.0339666
0.186648 0.624582 0.0227359
0.28986 0.646403 0.0141909
0.418036 0.671794 0.00991836
0.520607 0.693919 0.00662242
0.602029 0.710887 0.00479133
0.689525 0.729808 0.00381476
0.764691 0.746288 0.000976577
0.848707 0.764721 0
0.907454 0.769055 0
0.942336 0.761669 0
0.961013 0.752422 0
0.974777 0.745251 0
0.990219 0.730907 0
0.992721 0.728496 0
0.993271 0.730999 0
0.996902 0.741924 0
0.996902 0.73402 0
0.999039 0.786511 0
0.999039 0.880171 0
0 0 0
0 0 0
0 0.543709 0.171633
0 0.54905 0.168612
0 0.554025 0.165225
0 0.558785 0.162234
0 0.564218 0.159426
0 0.570047 0.157351
0 0.576364 0.153628
0 0.585519 0.14902
0.00207523 0.594247 0.139162
0.0121767 0.604776 0.123903
0.0432136 0.61622 0.101564
0.09897 0.630747 0.0808118
0.174563 0.648447 0.0620127
0.271611 0.668315 0.0441596
0.390692 0.692088 0.0322881
0.49482 0.714519 0.0224308
0.579355 0.733898 0.0197757
0.654917 0.749798 0.0197757
0.735607 0.767834 0.0200809
0.806012 0.782452 0.0163272
0.886732 0.800427 0.00134279
0.942184 0.807568 0.000366217
0.970718 0.804761 0
0.981765 0.797436 0
0.988907 0.788708 0
0.998764 0.777722 0
0.999039 0.769909 0
0.999039 0.773022 0
0.999039 0.780285 0
0.999039 0.775341 0
0.999039 0.845777 0
0 0 0
0 0 0
0 0.589151 0.231785
0 0.593362 0.229374
0 0.596902 0.226963
0 0.60029 0.224949
0 0.604654 0.222141
0 0.60853 0.220066
0 0.613535 0.219089
0.000976577 0.620279 0.216709
0.00350958 0.628031 0.213169
0.0172732 0.637736 0.204379
0.0520027 0.649088 0.191897
0.105196 0.660227 0.173007
0.174868 0.674083 0.151034
0.260594 0.691691 0.127169
0.37174 0.711955 0.0993362
0.471748 0.730968 0.0797131
0.556435 0.750378 0.0661021
0.633066 0.767864 0.0631113
0.701671 0.78291 0.0666209
0.775982 0.798993 0.075227
0.839216 0.812177 0.0729076
0.915114 0.826398 0.0184634
0.964462 0.833692 0.00500496
0.988632 0.834058 6.10361e-05
0.995224 0.830335 0
0.996811 0.821454 0
0.999039 0.812238 0
0.999039 0.802655 0
0.999039 0.805859 0
0.999039 0.809064 0
0.999039 0.816846 0
0.999039 0.892378 0
0 0 0
0.00030518 0.64332 0.319585
0.000457771 0.646403 0.317632
0.00128176 0.64918 0.315679
0.00256352 0.65211 0.313725
0.00384527 0.654612 0.3122
0.00610361 0.657023 0.310796
0.00885023 0.66041 0.309331
0.0166323 0.665721 0.307897
0.0293584 0.672068 0.307195
0.0533761 0.680919 0.305241
0.087892 0.690318 0.301274
0.139956 0.702434 0.294285
0.207401 0.714549 0.280522
0.291569 0.72871 0.263096
0.38233 0.743359 0.245792
0.466987 0.757427 0.22797
0.543648 0.772351 0.214786
0.614481 0.787549 0.206363
0.68098 0.801648 0.199466
0.742626 0.81474 0.200992
0.809033 0.828138 0.197513
0.866621 0.838819 0.193301
0.934829 0.84596 0.0786755
0.977707 0.850324 0.0411688
0.99733 0.851514 0.00854505
0.999039 0.849561 0.000579843
0.999039 0.846204 0
0.999039 0.84004 0
0.999039 0.827527 0
0.999039 0.83061 0
0.999039 0.828809 0
0.999039 0.854688 0
0 0 0
0.0104372 0.694713 0.404364
0.0153506 0.69688 0.403388
0.019501 0.698833 0.402197
0.0236515 0.700786 0.400824
0.0298466 0.702739 0.399481
0.0373846 0.705028 0.398718
0.0466621 0.707622 0.397314
0.0608225 0.71104 0.39585
0.0795605 0.715404 0.394385
0.108644 0.722148 0.393408
0.146731 0.730968 0.393408
0.196048 0.741924 0.392065
0.258335 0.75404 0.38764
0.331121 0.764416 0.378393
0.405524 0.775555 0.368994
0.476875 0.786908 0.360601
0.543038 0.798322 0.352361
0.60621 0.810376 0.346777
0.667552 0.823468 0.344182
0.726238 0.835584 0.343542
0.781048 0.846937 0.352148
0.838239 0.857099 0.343999
0.888899 0.864698 0.332311
0.949569 0.863416 0.182803
0.985214 0.864851 0.129702
0.998978 0.862654 0.051545
0.999039 0.860914 0.0173953
0.999039 0.862531 0.000122072
0.999039 0.861128 0
0.999039 0.847364 0
0.999039 0.847791 0
0.999039 0.842878 0
0.999039 0.89192 0
0.069337 0.747082 0.491707
0.0790417 0.748791 0.49073
0.0891737 0.750011 0.490059
0.100069 0.75172 0.489754
0.110353 0.753552 0.489021
0.122011 0.754986 0.488289
0.135256 0.757397 0.488045
0.152987 0.759564 0.487068
0.177249 0.763195 0.486336
0.207279 0.768292 0.487312
0.242618 0.774365 0.487312
0.281468 0.781567 0.487312
0.327398 0.789319 0.48658
0.381476 0.797803 0.484535
0.443 0.806287 0.477424
0.50251 0.815015 0.469703
0.555673 0.823743 0.464363
0.609506 0.83415 0.459022
0.662181 0.843885 0.454902
0.714153 0.854231 0.453376
0.766369 0.864027 0.451789
0.81416 0.873487 0.453223
0.865187 0.880934 0.441962
0.909957 0.887037 0.433051
0.961685 0.880873 0.290288
0.989395 0.879194 0.223148
0.999039 0.873854 0.145693
0.999039 0.868269 0.0657053
0.999039 0.870253 0.00390631
0.999039 0.875166 0
0.999039 0.86244 0
0.999039 0.861555 0
0.999039 0.85597 0
0.229618 0.790784 0.563546
0.236393 0.792218 0.563546
0.243717 0.793652 0.563272
0.250797 0.794385 0.563272
0.257542 0.795666 0.563272
0.263005 0.796277 0.56257
0.268864 0.796643 0.56257
0.279393 0.798596 0.562295
0.295201 0.80058 0.562295
0.312688 0.803967 0.563272
0.337835 0.807355 0.563272
0.364019 0.811994 0.563272
0.39939 0.817334 0.563272
0.438941 0.823926 0.562997
0.485023 0.830793 0.561196
0.532479 0.838514 0.556832
0.57969 0.846571 0.552468
0.621225 0.853346 0.548806
0.665415 0.862074 0.545418
0.709331 0.870802 0.543893
0.755566 0.879805 0.543893
0.801068 0.887556 0.541939
0.842451 0.895003 0.542916
0.887922 0.90132 0.532753
0.927169 0.906386 0.52253
0.972122 0.900282 0.412787
0.993759 0.893965 0.328038
0.999039 0.886671 0.252781
0.999039 0.878981 0.182712
0.999039 0.873762 0.0379034
0.999039 0.883284 0.00128176
0.999039 0.876265 0
0.999039 0.871534 0
0.345464 0.821424 0.62153
0.349035 0.8224 0.62153
0.353155 0.8224 0.62153
0.357397 0.823377 0.62153
0.361578 0.824048 0.62153
0.365942 0.824353 0.621195
0.370916 0.82533 0.620554
0.375738 0.826123 0.620554
0.385016 0.8271 0.620554
0.397955 0.829267 0.620554
0.411994 0.831678 0.620554
0.432441 0.834882 0.621347
0.457099 0.83827 0.62153
0.48542 0.84361 0.62153
0.518807 0.848951 0.62153
0.55668 0.856062 0.621347
0.595773 0.862684 0.619577
0.635264 0.869673 0.616678
0.671763 0.876417 0.614694
0.709148 0.883986 0.612741
0.748241 0.890761 0.611765
0.789288 0.898512 0.611765
0.831189 0.906142 0.611948
0.867872 0.912276 0.614481
0.907546 0.918593 0.607126
0.941176 0.922438 0.599557
0.979873 0.917556 0.514412
0.997543 0.91078 0.445533
0.999039 0.902052 0.381537
0.999039 0.895277 0.327245
0.999039 0.883925 0.1991
0.999039 0.883955 0.0412604
0.999039 0.883925 0
0.435035 0.845014 0.672099
0.436988 0.845991 0.672099
0.440192 0.845991 0.672099
0.442603 0.846967 0.672099
0.445014 0.846967 0.672099
0.447761 0.846967 0.672099
0.451148 0.847944 0.671763
0.455512 0.848554 0.671122
0.460853 0.849012 0.671122
